X:1
T:Title
%%score ( 1 2 3 )
L:1/8
M:4/4
K:G
V:1 treble-8 nm="Guitar"
V:2 treble-8 
V:3 treble-8 
V:1
 z6[Q:1/4=120] !4!b2 | !4!g4 z2 e2 |"^Brahms Symph 4:1   arr.Dempsey" c'4 z2 a2 | f4 z2 ^d2 | %4
 b4 z2 e'2 | e4 z2 g2 | b4 z2 !4!d'2 | d4 z2 =f2 |"^CV....................." a4 z2 c'2 | %9
 !1!c4- cBcA | c'4- c'aed | c4- cBcA | !4!c'4- c'!4!a_ed | c2 z e B2 z d | A2 z c ^G2 z B | %15
 a2 =g2 f2 e2 | _b2 g2 !1!f2 e2 | !0!B3 !4!b b4 | b2 a3/2b/4a/4 g2 [fb]2 || !4!e'6 e2 | %20
 !1![ec']dc!0!B cB[fa]G | !4!!1![fa]gfe fe^d^c | !1!^d^c!0!BA !0!BA [ge']2 | %23
 [=ce][Gd][Ec][Gd] [ce][DG] [_eg]2 | [Bd]c[GB][Ac] [_Bd]2 [_bd']2 | %25
 [Ad][Ae]de !1![df]!4!a!4![=fd']!1!!2![B^g] | [^cea][Bd][Ac][Bd] [=ce][Bd][Ac][GB] | c4- cBcA | %28
 c'4- c'aed | ^c4- c^BcA |"^CXII----------------------" !1!d'4- d'af!open!d | ^d2 z g c2 z f | %32
 B2 z e A2 z ^d | [EG]2 g2 f2 e2 | d2 c2 G4 | G2 F2 ^D3 E | G3 B e2 e!open!g | b2 [=fc']2 b2 a2 | %38
 [=FG]2 [Fc]2 FACF | C=F C2 ccGc |"^decel...." EGEG GEGE | B2 [fb]2 [eg]4 | z2 !0![^GBde]2 [Ac']4 | %43
 z2 [Eca]2 [A^df]4 | z2 [FA^d]2 [egb]4 | [Ece]4 [GB]4 | [Bdg]4 !1![dfb]4 | [fad']4 [=FAd]4 | %48
 [Ac=f]4 [cea]4 | c4- cBcA | c'4- c'aed | c'3 b c'a_ed | c3 B cA_ED | c2 z e B2 z ^c | %54
 d2 z =f ^c2 z ^d | eg^df egdf | ceB=d ceBd | [CE]2 g2 f2 e2 | d2 c2 G4 | G2 F2 z3 E | G3 B e3 g | %61
 b2 [=fc']2 b2 a2 | [=FG]2 [Fc]2 FACF | C=F C2 ccGc | EGEG GEGE | [^DB]2 [F,B]4 [A^dfb]2 | %66
 !4!g4 z2 e2 | c'4 z2 a2 | f4 z2 ^d2 | b4 z2 e'2 | e4 z2 g2 | b4 z2 d'2 | d4 z2 =f2 | %73
"^CV....................." a4 z2 c'2 | c4- cBcA | c'4- c'aed | c4- cBcA | !4!c'4- c'!4!a_ed | %78
 c2 z e B2 z d | A2 z c ^G2 z B | a2 =g2 f2 e2 | _b2 g2 f2 e2 |"^Rit........" !0!B3 !4!b b4- | %83
 b2 a3/2b/4a/4 g2 f2 | [E,B,EGBe]8 |] %85
V:2
 x8 | E,B,EG BEGB | E,!1!c!1!ec !3!A!3!EcA | E,B,FA [B,F]AFA | E,E!0!G!0!B [EG][GB]bE | %5
 CG,EG [CEc]GcE | !1!G,DGB [DG]B!1!d!2!g | DA,=FA DAd[Fd] | !1!A,Ece [Ec][ce] [Ae]2 | %9
 !1!!3![^DA]!2!F,!4!CA [F,C]2 ^D2 | [E,A]EAc [ce]2 [Ec]2 | [=F,A]C=FA [C_E]2 E2 | %12
 !3![A,^f]!1!c!2![_Ef]c E2 [Fc]2 | G,CEG ^GB,=Fd | A,CEA B,D^GD | [CE]AEA E_BCB | %16
 [Ge]^cE_B !1![Ec]!2!B F,2 | !2!!0![B,G]!3!E[GB]!1!e [B,G]B[Ge][GB] | [B,^DA]2 z4 B2 || %19
 !2!!3![gb]agf gfc^d | !1!G2 A,2 z2 A2 | z2 ^D2 z2 B,2 | !3!!1![^DB]2 G2 z2 E2 | G2 C2 z2 CG | %24
 G2 G,2 z G2 G | F2 D2 z2 !0!D z | x8 | [^DA]F,CA [F,C]2 ^D2 | [E,A]EAc [ce]2 [Ec]2 | %29
 [^CFA]F,FA [^CFA]2 E2 | !1!!2![=cf]!1!afa f2 c2 | [B,FA]2 [G,B]E [A,E][GB][FA][Ac] | %32
 [B,^D]A[EG][GB] [B,E][EG]F[FA] | C2 [Ec]4 [DF]2- | [DF]2 [EG]2 D2 [CE]2 | [B,D]2 C2 [E,B,]4 | %36
 G,B,EG GBeG | [Ge]2 A2 [Ac]2 [Gd]2 | G,2 A,6 | A2 ^G2 =G2 z2 | E,4 _B,4 | B,2 [B,A^d]2 z2 E2 | %42
 C4 z2 A,2 | F,4 z2 ^D2 | B,4 z2 E,2- | E,2 E,4 G,2- | G,2 !1!B,4 D2- | D2 D4 =F,2- | F,2 A,4 C2 | %49
 [^F,^DA]2 [F,DA]4 [F,D]2 | [E,Ac]2 [E,Ac]4 [E,A]2 | [=FA_e]2 [FA]4 [FA]2 | [^F,_E]2 [F,EA]4 F,2 | %53
 G,2 G4 F,2 | A,2 A4 ^A,2 | B2 c2 B2 A2 | G2 _A2 G2 =F2 | G,2 [CE]4 [DF]2- | %58
 [DF]2 [EG]2 [DF]2 [CE]2 | [B,D]2 C2 [G,B,^D]4 | G,B,EG G,B,EG | [Ge]2 A2 [Ac]2 [Gd]2 | %62
 G,2 A,2 A,4 | A2 ^G2 =G4 | E,4 _B,4 | x8 | E,B,EG BEGB | E,!1!c!1!ec !3!A!3!EcA | %68
 E,B,FA [B,F]AFA | E,E!0!G!0!B [EG][GB]bE | CG,EG [CEc]GcE | !1!G,DGB [DG]B!1!dg | DA,=FA DAd[Fd] | %73
 A,Ece [Ec][ce] [Ae]2 | [^DA]F,CA [F,C]2 ^D2 | [E,A]EAc [ce]2 [Ec]2 | [=F,A]C=FA [C_EA]2 E2 | %77
 !3![A,^f]c!2![_Ef]c c2 [Fc]2 | G,CEG ^G,B,=FB | A,CEA B,D^GD | [CE]AEA E_BCB | %81
 [Ge]^cE_B [Ec]B F,2 | !2!!0![B,G]!3!E[GB]!1!e [B,G]B[Ge][GB] | [B,^DA]2 z4 B2 | x8 |] %85
V:3
 x8 | x8 | x8 | x8 | x8 | x8 | x8 | x8 | x8 | x8 | x8 | x8 | x8 | x8 | x8 | x8 | x8 | x8 | x8 || %19
 E,8 | x8 | x8 | x8 | x8 | x8 | x8 | x8 | x8 | x8 | x8 | x8 | x8 | x8 | x8 | x8 | x8 | x8 | x8 | %38
 g2 =f2 c4- | c2 d2 =f3 e | c3 G e3 c | x8 | x8 | x8 | x8 | x8 | x8 | x8 | x8 | x8 | x8 | x8 | x8 | %53
 x8 | x8 | x8 | x8 | x8 | x8 | x8 | x8 | x8 | g2 =f2 c4- | c2 d2 =f3 e | c3 g e3 c | x8 | x8 | x8 | %68
 x8 | x8 | x8 | x8 | x8 | x8 | x8 | x8 | x8 | x8 | x8 | x8 | x8 | x8 | x8 | x8 | x8 |] %85

